usr/share/icons/biglinux-icons-material-dark/16/actions/view-sort-ascending-name.svg

<svg xmlns="http://www.w3.org/2000/svg" viewBox="0 0 16 16">
  <defs id="defs3051">
    <style type="text/css" id="current-color-scheme">
      .ColorScheme-Text {
        color:#dedede;
      }
      </style>
  </defs>
 <path style="fill:currentColor;fill-opacity:1;stroke:none" 
       d="M 4.09375 2 C 3.31051 2.0182 2.71841 2.14339 2.28125 2.34375 L 2.53125 3.25 C 2.74072 3.1771 3.53552 2.9375 4 2.9375 L 4.0625 2.9375 C 4.70913 2.9648 4.75 3.19445 4.75 3.75 L 4.75 3.96875 L 4.40625 4.03125 C 2.83976 4.25893 2 4.45406 2 5.65625 C 2 6.49414 2.61657 7 3.5 7 C 4.1102 7 4.49642 6.75233 4.90625 6.40625 L 5 7 L 6 7 L 6 3.53125 C 6 2.50211 5.2804 2 4.1875 2 L 4.09375 2 z M 10.5 4 L 10.28125 4.1875 L 7 7.5 L 7.71875 8.1875 L 10 5.90625 L 10 14 L 11 14 L 11 5.90625 L 13.28125 8.1875 L 14 7.5 L 10.71875 4.1875 L 10.5 4 z M 4.75 4.6875 L 4.75 5.8125 C 4.41303 6.0402 4.15591 6.1875 3.71875 6.1875 C 3.32713 6.1875 3.125 5.93983 3.125 5.59375 C 3.125 4.93801 3.70497 4.81893 4.40625 4.71875 L 4.75 4.6875 z M 2 9 L 2 10 L 4.375 10 L 2 13.318359 L 2 14 L 6 14 L 6 13 L 4 13 L 6 10 L 6 9 L 2 9 z "
     class="ColorScheme-Text"
     />
</svg>

<svg xmlns="http://www.w3.org/2000/svg" viewBox="0 0 16 16">
<defs id="defs3051">
<style id="current-color-scheme" type="text/css">
.ColorScheme-Text{color:#dedede}
</style>
</defs>
<path d="M4.094 2c-.783.018-1.376.143-1.813.344l.25.906c.21-.073 1.005-.312 1.469-.312h.063c.646.027.687.256.687.812v.219l-.344.062C2.84 4.26 2 4.454 2 5.656 2 6.494 2.617 7 3.5 7c.61 0 .996-.248 1.406-.594L5 7h1V3.531C6 2.502 5.28 2 4.188 2zM10.5 4l-.219.188L7 7.5l.719.688L10 5.906V14h1V5.906l2.281 2.282L14 7.5l-3.281-3.312zm-5.75.688v1.125c-.337.227-.594.375-1.031.375-.392 0-.594-.248-.594-.594 0-.656.58-.775 1.281-.875zM2 9v1h2.375L2 13.318V14h4v-1H4l2-3V9z" class="ColorScheme-Text" style="fill:currentColor;fill-opacity:1;stroke:none"/>
</svg>
